X:125
T: Im Wald, im Wald, im Wald
N: D0182
O: Europa, Mitteleuropa, Deutschland, Untermainfranken, Spessart
N: Inzipit = Variante zum Lied; Sequenzen
R: Jaeger - Lied
M: 6/8
L: 1/16
K: D
A2 | A4A2A4f2 | d6-d4
A2 | A4A2B4A2 | G6-G4
f2 | e4f2e4f2 | e6-e4
d2 | c4B2A4G2 | F6-F4
AA | f2e2d2d2c2B2 | A2A2A2A2A2
d2 | c2c2c2c2c2e2 | d2d2d2d2d2
AA | f2e2d2d2c2B2 | A2A2A2A2A2
dd | c2c2A2f2f2e2 | D6-D4

@@@ Tune index: 2647
